X:5842
T:Gan Ainm
R:Reel
S:
H:
N:
D:
Z:Adrian Scahill
M:4/4
L:1/8
K:G
EAAG ABcd|eAA2 eAfA|fggf gedc|Bggf gedB|\
EAAG ABcd|eAA2 eAfA|fggf gedB|1 GABG A3G:|2 GABG A2(3Bcd||
eaag aged|eAA2 eAfA|g2fa gedc|Bggf gedB|\
^cAA2 cAdA|eAA2 eAfA|g2fa gedB|GABG A4:||\


